src/assets/icons/icons-origin/EditOutline.svg

<svg width="24" height="24" viewBox="0 0 24 24" xmlns="http://www.w3.org/2000/svg">
  <path d="M19 20H5C4.73478 20 4.48043 20.1054 4.29289 20.2929C4.10536 20.4804 4 20.7348 4 21C4 21.2652 4.10536 21.5196 4.29289 21.7071C4.48043 21.8946 4.73478 22 5 22H19C19.2652 22 19.5196 21.8946 19.7071 21.7071C19.8946 21.5196 20 21.2652 20 21C20 20.7348 19.8946 20.4804 19.7071 20.2929C19.5196 20.1054 19.2652 20 19 20Z" fill="currentColor" />
  <path d="M5.00001 18H5.09001L9.26001 17.62C9.7168 17.5745 10.144 17.3732 10.47 17.05L19.47 8.05001C19.8193 7.68098 20.0081 7.18852 19.995 6.68055C19.9819 6.17257 19.7679 5.69052 19.4 5.34001L16.66 2.60001C16.3024 2.26411 15.8338 2.07137 15.3433 2.05846C14.8529 2.04556 14.3748 2.21338 14 2.53001L5.00001 11.53C4.67677 11.856 4.47551 12.2832 4.43001 12.74L4.00001 16.91C3.98654 17.0565 4.00554 17.2041 4.05567 17.3424C4.10579 17.4807 4.18581 17.6062 4.29001 17.71C4.38345 17.8027 4.49426 17.876 4.6161 17.9258C4.73794 17.9755 4.8684 18.0008 5.00001 18ZM15.27 4.00001L18 6.73001L16 8.68001L13.32 6.00001L15.27 4.00001ZM6.37001 12.91L12 7.32001L14.7 10.02L9.10001 15.62L6.10001 15.9L6.37001 12.91Z" fill="currentColor" />
</svg>

<svg width="24" height="24" viewBox="0 0 24 24" xmlns="http://www.w3.org/2000/svg">
  <path d="M19 20H5a1 1 0 0 0 0 2h14a1 1 0 0 0 0-2ZM5 18h.09l4.17-.38a2 2 0 0 0 1.21-.57l9-9a1.92 1.92 0 0 0-.07-2.71L16.66 2.6A2 2 0 0 0 14 2.53l-9 9a2 2 0 0 0-.57 1.21L4 16.91A1 1 0 0 0 5 18ZM15.27 4 18 6.73l-2 1.95L13.32 6l1.95-2Zm-8.9 8.91L12 7.32l2.7 2.7-5.6 5.6-3 .28.27-2.99Z" fill="currentColor"/>
</svg>
